actions/symbolic/edit-clear-rtl-symbolic.svg

<?xml version="1.0" encoding="UTF-8" standalone="no"?>
<svg
   xmlns:dc="http://purl.org/dc/elements/1.1/"
   xmlns:cc="http://creativecommons.org/ns#"
   xmlns:rdf="http://www.w3.org/1999/02/22-rdf-syntax-ns#"
   xmlns:svg="http://www.w3.org/2000/svg"
   xmlns="http://www.w3.org/2000/svg"
   version="1.1"
   width="16"
   height="16"
   id="svg7384">
  <title
     id="title9167">elementary Symbolic Icon Theme</title>
  <defs
     id="defs11" />
  <metadata
     id="metadata90">
    <rdf:RDF>
      <cc:Work
         rdf:about="">
        <dc:format>image/svg+xml</dc:format>
        <dc:type
           rdf:resource="http://purl.org/dc/dcmitype/StillImage" />
        <dc:title>elementary Symbolic Icon Theme</dc:title>
      </cc:Work>
    </rdf:RDF>
  </metadata>
  <path
     d="m 9.4226354,2.999999 a 0.51931882,0.52641945 0 0 1 0.25,0.15625 l 5.1874996,5.3125 a 0.51931882,0.52641945 0 0 1 -0.03125,0.75 L 9.7976354,13.84375 A 0.51931882,0.52641945 0 0 1 9.4538854,14 l -7.90625,0 a 0.51931882,0.52641945 0 0 1 -0.53125,-0.53125 l 0,-9.937501 a 0.51931882,0.52641945 0 0 1 0.53125,-0.53125 l 7.75,0 a 0.51931882,0.52641945 0 0 1 0.0625,0 0.51931882,0.52641945 0 0 1 0.0625,0 z m -1.34375,2.25 -1.8125,1.75 -1.78125,-1.75 -1.46875,1.46875 1.75,1.78125 -1.75,1.84375 1.46875,1.406251 1.78125,-1.750001 1.8125,1.750001 1.4375,-1.437501 -1.75,-1.8125 1.75,-1.78125 -1.4375,-1.46875 z"
     id="path4463"
     style="color:#bebebe;fill:#bebebe;fill-opacity:1;fill-rule:nonzero;stroke:none;stroke-width:1;marker:none;visibility:visible;display:inline;overflow:visible;enable-background:accumulate" />
</svg>

<svg xmlns="http://www.w3.org/2000/svg" viewBox="0 0 16 16"><title>elementary Symbolic Icon Theme</title><path d="M9.423 3a.52.526 0 0 1 .25.156L14.86 8.47a.52.526 0 0 1-.03.75l-5.032 4.624a.52.526 0 0 1-.344.156H1.548a.52.526 0 0 1-.532-.53V3.53A.52.526 0 0 1 1.548 3h7.75a.52.526 0 0 1 .062 0 .52.526 0 0 1 .063 0zM8.08 5.25L6.265 7l-1.78-1.75-1.47 1.47 1.75 1.78-1.75 1.844 1.47 1.406L6.265 10l1.813 1.75 1.436-1.438L7.766 8.5l1.75-1.78L8.08 5.25z" color="#bebebe" fill="#bebebe" overflow="visible"/></svg>
